X: 1
T: Kiper\"a  [A]
O: Finland
R: polka
Z: 2012 John Chambers <jc:trillian.mit.edu>
M: 2/4
L: 1/16
%Q: 1/4=138
P: Play IABABABA (3.5x)
K: A
%%indent 300
"I"||\
"E"g6 f2 | efed cdcB | "A"A2z2 "D"a4 | "A"A4 z2df ||
"A"[|\
"D"a2a2g2f2 | "A"a2ed cde2 | "E"e2e2 d2cB | "A"c2c2 A2Bc |\
"D"d2d2 f2df | a2a2g2f2 | "A"a2ed cde2 | e2e2 cdef |
"E"g6 f2 | efed cdcB | "A"A2A2 cABc | e3d cdef |\
"E"g6 f2 | efed cdcB | "A"A2z2 e4 | e4 "fine"e4 |]
"B"|:\
"D"d2 f4 d2 | "A"c2 e4 e2 | "E"e2d2c2B2 | "A"A4 A4 |\
"D"d2d2 f4 | "A"c2 e4 e2 | "E"e2d2c2B2 | [1 "A"A4 A4 :|[2 "A"A4 A2df |]

%%sep 1 1 500

